X: 4
T: Big John McNeil
R: reel
M: 4/4
L: 1/8
K: Amaj
|:A,2 CE FECE|AECE FECB,|A,2 CE FECE|FECA, ~B,2 CB,|
A,2 CE FECE|AECE FECE|(3DDD F2 (3CCC E2|1B,A,G,A, B,CDB, :|2B,A,G,A, B,CD2||
|:eA (3AAA eAfA | eA (3AAA efga | eA (3AAA agfe | dBGB (3ddd cd |
eA (3AAA eAfA | eA (3AAA efge |1 agfe fedc | dcBA Bcd^d :|2 agfe fedc | BAGF EDCB, |


Tune 1002	Setting 1002

